!!!OTL: Lebrecht Munter.
!!!OTL-incipit:WOS GAR ZU SACHT UND STILLE GEHT
!!!COM: G. W. Fink
!!!ARE: Europa, Mitteleuropa, Deutschland
!!!SCT: F0209
!!!TXL: @@DE
!!!YEM: Copyright 1995, estate of Helmut Schaffrath.
**kern	**text
*ICvox	*
*clefG2	*
*M3/4	*
*k[f#]	*
*G:	*
!LO:TX:a:t=Munter, aber nicht zu schnell.	!
!LO:TX:a:t=Auch dreiſtimmig ohne Begleitung für Männerſtimmen.	!
!LO:TX:a:t=P:only the highest voice encoded:problem	!
{8g	Wo's
=1	=1
8.dd	gar
16dd	ʒu
4.dd	ſacht
8cc	und
=2	=2
8.cc	ſtil-
16b/	-le
4.b/}	geht,
{8a	da
=3	=3
4.g	bin
8b/	ich
8a	nicht
8cc	ʒu
=4	=4
8.b/L	Hau-
16ccJ	.
4.dd/}	.
{8gg^^	.
=5	=5
8.ff#L	.
16eeJ	.
4.dd	.
8cc	.
=6	=6
4b/'	.
4g'	-ſe,
8r}	.
{8g	und
=7	=7
8.dd	wo
16dd	der
4.dd	Mund
8cc	auf
=8	=8
8.cc	Schildwacht
16b/	.
4.b/}	ſteht,
{8a	da
=9	=9
4.g	fährt
8b/	mir's
8a/	in
8cc	die
=10	=10
8.b/L	Krau-
16ccJ	.
4.dd/}	.
{8gg^^	.
=11	=11
8.ff#L	.
16eeJ	.
4.dd	.
8cc	.
=12	=12
4b/'	.
4g'	-ſe,
8r}	.
{8b/	und
=13	=13
8.a	fährt
16a	mir
4.a	auch
8b/	ſo
=14	=14
8.dd	tief
16cc/	hinein,
4cc/	.
8r}	.
{8cc/	daß
=15	=15
4.b/	ich
8dd/	muß
8cc/	Lebrech
8ee	.
=16	=16
8.ee	Munter
16dd	.
4dd	ſein,
8r}	.
{8gg	daß
=17	=17
(4.dd/	ich
8b/)	.
8cc/L	muß
8eeJ	.
=18	=18
4.dd	Leb-
8b/	-recht
16ddq	.
8.cc/	Munter
16a	.
=19	=19
(4a	ſein.
8g)	.
8r	.
8r}	.
{8b	und
=20	=20
8.a	fährt
16a	mir
4.a	auch
8b/	ſo
=21	=21
8.dd	tief
16cc	hinein,
4cc	.
8r}	.
{8cc/	daß
=22	=22
4.b	ich
8dd/	muß
8cc/	Lebrech
8ee	.
=23	=23
8.ee	Munter
16dd	.
4dd	ſein,
8r}	.
{8gg	daß
=24	=24
(4.dd/	ich
8b/)	.
8cc/L	muß
8eeJ	.
=25	=25
4.dd	Leb-
8b/	-recht
16ddq	.
8.cc/	Munter
16a	.
=26	=26
4a	ſein.
8g	.
8r	.
8r}	.
==;	==;
!!!AGN: Geselligkeits - Lied
!!!ONB: ESAC (Essen Associative Code) Database: FINK
!!!AMT: simple triple
!!!AIN: vox
!!!EED: Helmut Schaffrath
!!!EEV: 1.0
!!!GTL: Volkslieder
!!Text: G. W. Fink
!!!source: Musikalischer Hausschatz der Deutschen. Eine Sammlung von über 1000 Liedern und Gesängen mit Singstimmen und Klavierbegleitung. Leipzig, Litterarisches Verlags-Haus.
!!!page: 122
!!!URL-scan: https://www.digitale-sammlungen.de/en/view/bsb11144622?page=130,131
!!!ENC: Anna Maria Matuszewska
!!!EEV: 2024/07/26
*-	*-